assets/icons/file_icons/readme.svg

<?xml version="1.0" encoding="UTF-8"?><svg id="Done" xmlns="http://www.w3.org/2000/svg" xmlns:xlink="http://www.w3.org/1999/xlink" viewBox="0 0 14 14"><defs><style>.cls-1{fill:#35b6e1;}.cls-2{fill:none;}</style><clipPath id="clippath"><path class="cls-2" d="m-117.5539,141.2769l-4.998,2.499c-.2821.141-.6141.141-.8962,0l-4.998-2.499c-.3395-.1697-.5539-.5167-.5539-.8962v-5.7615c0-.3795.2144-.7265.5539-.8962l4.998-2.499c.2821-.141.6141-.141.8962,0l4.998,2.499c.3395.1697.5539.5167.5539.8962v5.7615c0,.3795-.2144.7265-.5539.8962Z"/></clipPath></defs><g id="Layer_19"><path class="cls-1" d="m10.4087,1h-.8189c-.3879,0-.7705.0903-1.1174.2638l-1.4724.7362-1.471-.7355c-.3479-.1739-.7315-.2645-1.1204-.2645h-.7943c-.404,0-.8024.0941-1.1637.2747l-1.4506.7253H0v12h14V2h-1l-1.4711-.7356c-.3478-.1739-.7313-.2644-1.1201-.2644Zm-2.9962,11.5875l-.4125.4125-.4117-.4117c-.3767-.3767-.8876-.5883-1.4204-.5883h-1.2387l-1.9292,1h-1V3h1l1.0055-.5027c.6326-.3163,1.3703-.3473,2.0272-.0851l1.0162.5878v8l.9511,1V3l1.9609-.5844c.6609-.2644,1.4034-.2335,2.0401.0849l.999.4995h1v10h-1l-1.9403-1h-1.2288c-.532,0-1.0422.2113-1.4184.5875Z"/></g></svg>

<svg xmlns="http://www.w3.org/2000/svg" viewBox="0 0 14 14"><path fill="#35b6e1" d="M10.409 1h-.82c-.387 0-.77.09-1.117.264L7 2l-1.471-.735A2.5 2.5 0 0 0 4.409 1h-.795c-.404 0-.802.094-1.163.275L1 2H0v12h14V2h-1l-1.471-.736A2.5 2.5 0 0 0 10.409 1M7.412 12.588 7 13l-.412-.412A2 2 0 0 0 5.168 12H3.929L2 13H1V3h1l1.006-.503a2.48 2.48 0 0 1 2.027-.085L6.049 3v8L7 12V3l1.96-.584a2.5 2.5 0 0 1 2.041.085L12 3h1v10h-1l-1.94-1H8.83c-.531 0-1.041.211-1.417.588"/></svg>
